svg/fluentui-system-icons/ic_fluent_mail_read_multiple_32_regular.svg

<svg width="32" height="32" viewBox="0 0 32 32" fill="none" xmlns="http://www.w3.org/2000/svg">
<path d="M14.0039 3.13176C14.3113 2.95608 14.6887 2.95608 14.9961 3.13176L24.4884 8.55592C25.4231 9.09004 26 10.0841 26 11.1606V19.5C26 21.9853 23.9853 24 21.5 24H7.5C5.01472 24 3 21.9853 3 19.5V11.1606C3 10.0841 3.57686 9.09004 4.51158 8.55592L14.0039 3.13176ZM6.01556 10L14.5 14.8482L22.9844 10L14.5 5.15175L6.01556 10ZM24 11.7232L14.9961 16.8682C14.6887 17.0439 14.3113 17.0439 14.0039 16.8682L5 11.7232V19.5C5 20.8807 6.11929 22 7.5 22H21.5C22.8807 22 24 20.8807 24 19.5V11.7232ZM11.0015 27.5001C9.43908 27.5001 8.06266 26.7039 7.25586 25.4951C7.33705 25.4983 7.41866 25.5 7.50065 25.5H10.9713L11.0015 25.5001H22.5015C25.2629 25.5001 27.5015 23.2616 27.5015 20.5001V13.1607C27.5015 13.147 27.5012 13.1334 27.5006 13.1199V10.2764L27.9899 10.5559C28.9246 11.0901 29.5015 12.0841 29.5015 13.1607V20.5001C29.5015 24.3661 26.3675 27.5001 22.5015 27.5001H11.0015Z" fill="#212121"/>
</svg>

<svg xmlns="http://www.w3.org/2000/svg" width="32" height="32"><path d="M14.004 3.132a1 1 0 0 1 .992 0l9.492 5.424A3 3 0 0 1 26 11.16v8.34a4.5 4.5 0 0 1-4.5 4.5h-14A4.5 4.5 0 0 1 3 19.5v-8.34a3 3 0 0 1 1.512-2.604l9.492-5.424ZM6.016 10l8.484 4.848L22.984 10 14.5 5.152 6.016 10ZM24 11.723l-9.004 5.145a1 1 0 0 1-.992 0L5 11.723V19.5A2.5 2.5 0 0 0 7.5 22h14a2.5 2.5 0 0 0 2.5-2.5v-7.777ZM11.002 27.5a4.496 4.496 0 0 1-3.746-2.005c.081.003.163.005.245.005h15a5 5 0 0 0 5-5V10.276l.489.28a3 3 0 0 1 1.512 2.605v7.34a7 7 0 0 1-7 7h-11.5Z"/></svg>
